X:6
T:Stack of Barley 
S:Sean Gavin
R:hornpipe
M:4/4
L:1/8
K:G
gf |: efed B2dB | A2AG AcBA | G2GA BA (3Bcd | e2 A2 A2 Bd |
efed B2dB | A2AG AcBA | G2GA BdAc | B2 G2 G2 :|
dc |: BGBd g2fg | agfg edBd | g2fg edBd | e2 A2 A2 fg |
agfa gedB | A2AG AcBA | GFGA BdAc | B2 G2 G2 :| 

